X: 1420
T: N`ideyim İster Darıl
C: Ahmet Avni Konuk
O: Turkey
F: http://compmusic.upf.edu/node/140
N: muhayyer--kupe--duyek--nideyim--ahmet_avni_konuk
N: makam= muhayyer
N: form= kupe
N: usul= duyek = 8/4
M: 8/4
L: 1/16
K: C _2/4B ^3/4f  
Q: 1/4=57
%%MIDI tuningsystem comma53
z4 g2g2 g4 a4 a8 c'3b a2b2  | a4 a2b2 .a4 b4 c'4 d'4 d'2c'2 b2a2  | 
w:  Ni *  *  de yim  is  |  *  ter  *  *  da rıl  *  is  | 
g4 a2b2 .a4 b4 c'4 b2a2 d'4 e'4  | \
w:  *  ter  *  *  ba rış  *  *  ey   | 
d'2c'2 c'2c'2 c'3b a4 b3a b2c'2 a6z2  | 
w:  *  *  gon *  *  *  ca  gül    | 
z4 g2g2 g4 a4 a2c'2 _1/4b2a2 a2g2 ^f2g2  | \
w:  Sen  *  *  Mu hay *  *  *  yer  | 
e4 e4 {=f}e4 d4 d2c2 {d}c2d2 c3B A4  | 
w:  *  sin  *  *  fe râ *  *  *  *  gat   | 
z4 A2G2 A4 B4 c4 d4 d2c2 B2A2  | G4 d2d2 d4 c2B2 B2A2 {c}B2A2 A6z2  | 
w:  ey *  *  le mez  *  sen  |  *  den  *  *  gö *  nül    | 
|


